packages/ffe-icons/icons/open/300/md/border_all.svg

<svg xmlns="http://www.w3.org/2000/svg" height="24" viewBox="0 -960 960 960" width="24"><path d="M140.001-212.309v-535.382q0-29.827 21.241-51.067 21.24-21.241 51.067-21.241h535.382q29.827 0 51.067 21.241 21.241 21.24 21.241 51.067v535.382q0 29.827-21.241 51.067-21.24 21.241-51.067 21.241H212.309q-29.827 0-51.067-21.241-21.241-21.24-21.241-51.067Zm369.998-237.692V-200H760v-250.001H509.999Zm0-59.998H760V-760H509.999v250.001Zm-59.998 0V-760H200v250.001h250.001Zm0 59.998H200V-200h250.001v-250.001Z"/></svg>

<svg xmlns="http://www.w3.org/2000/svg" height="24" viewBox="0 -960 960 960" width="24"><path d="M140-212.31v-535.38q0-29.83 21.24-51.07Q182.48-820 212.31-820h535.38q29.83 0 51.07 21.24Q820-777.52 820-747.69v535.38q0 29.83-21.24 51.07Q777.52-140 747.69-140H212.31q-29.83 0-51.07-21.24Q140-182.48 140-212.31ZM510-450v250h250v-250H510Zm0-60h250v-250H510v250Zm-60 0v-250H200v250h250Zm0 60H200v250h250v-250Z"/></svg>
